assets/img/icons/scale.svg

<svg id="scale" width="64" height="64" viewBox="0 0 64 64" fill="none" xmlns="http://www.w3.org/2000/svg">
<path d="M5.51161 11.0804C14.6573 -1.14011 31.9792 -3.63387 44.2011 5.51105C56.4228 14.6559 58.9159 31.976 49.7704 44.1966L48.2138 46.2777L62.6932 60.7611V60.7689L63.6005 61.6761C64.1321 62.2076 64.1323 63.0691 63.6005 63.6009C63.0688 64.1326 62.2066 64.1328 61.6747 63.6009L46.2821 48.2093L44.2011 49.7659C34.3833 57.112 20.8986 57.1119 11.0809 49.7659C-1.14061 40.621 -3.63388 23.3009 5.51161 11.0804ZM27.7538 2.95148C14.0562 2.95155 2.95227 14.0543 2.95204 27.7513C2.95204 41.4485 14.0561 52.552 27.7538 52.5521H27.7567C41.4466 52.5375 52.5418 41.4444 52.5565 27.7552V27.7513C52.5563 14.0542 41.4514 2.95148 27.7538 2.95148Z" fill="white"/>
</svg>

<svg width="64" height="64" fill="none" xmlns="http://www.w3.org/2000/svg"><path d="M5.512 11.08c9.145-12.22 26.467-14.714 38.69-5.569 12.22 9.145 14.714 26.465 5.568 38.686l-1.556 2.08 14.48 14.484v.008l.906.907a1.36 1.36 0 1 1-1.925 1.925L46.282 48.209l-2.08 1.557a27.642 27.642 0 0 1-33.121 0C-1.141 40.62-3.634 23.3 5.51 11.08Zm22.242-8.129c-13.698 0-24.802 11.103-24.802 24.8 0 13.698 11.104 24.801 24.802 24.801h.003c13.69-.014 24.785-11.108 24.8-24.797v-.004c0-13.697-11.106-24.8-24.803-24.8Z" fill="#fff"/></svg>
